X:1
T:Title
%%score { ( 1 3 4 ) | ( 2 5 6 ) }
L:1/8
M:4/4
K:Bb
V:1 treble nm="Grand Piano"
V:3 treble 
V:4 treble 
V:2 bass 
V:5 bass 
V:6 bass 
V:1
 z4 z2 z[Q:1/4=100] [DF] | [Fd]2 [DB]>[Ec] [DB] [DF]2 [B,FB] | [EGc]2 [DFB]>[CFA] [DFB]3 [DF] | %3
 [DF]2 [EG]>[DF] [DF] [DB]2 [DF] | [DF]2 [EG]>[DF] F c2 F | [Dd]2 [Ec]>[FB] [GB] G2 B | %6
[M:37/32] z/4 z/4 z/4 z/4 z/4 z/4 z/ d/4-d/4-d/4-d/4-d/4-d/4-d/-<d/ z/4 z/4 z/4 z/4 z/4 z/4 z/4 z/4 z/4 z/4 z/4 z/4 z/4 z/4 z/4 z/4 z/4 z/ |] %7
V:2
 z4 z2 z [B,,B,] | [B,,B,]2 [B,,B,]>[B,,B,] [B,,B,] [B,,B,]2 D, | E,2 F,>F, B,,3 [B,,B,] | %3
 [B,,B,]2 [B,,B,]>[B,,B,] [B,,B,] [B,,B,]2 [B,,B,] | %4
 [B,,B,]2 [B,,B,]>[B,,B,] [F,A,E] [F,A,E]2 [F,A,E] | %5
 [B,,B,]2 [C,A,]>[D,B,] [E,B,] [E,B,E]2[K:treble] [G,B,D] | %6
[M:37/32] z/4 z/4 z/4 z/4 z/4 z/4 z/ F/4-F/4-F/4-F/4-F/4-F/4-F/-<F/[K:bass] z/4 z/4 z/4 z/4 z/4 z/4 z/4 z/4 z/4 z/4 z/4 z/4 z/4 z/4 z/4 z/4 z/4 z/ |] %7
V:3
 x8 | x8 | x8 | x8 | x8 | x8 | %6
[M:37/32] z/4 z/4 z/4 z/4 z/4 z/4 z/4 z/4 z/4 z/4 z/4 z/4 z/4 z/4 z/ c3/4 z/4 z/4 z/4 z/4 z/4 z/4 z/4 z/4 z/4 z/4 z/4 z/4 z/4 z/4 z/4 z/4 z/ |] %7
V:4
 x8 | x8 | x8 | x8 | x8 | x8 | %6
[M:37/32] c/4-c/4-c/4-c/4-c/-<c/ z/4 z/4 z/4 z/4 z/4 z/4 z/4 z/4 z/ [DB]/4-[DB]/4-[DB]/4-[DB]/4-[DB]/4-[DB]/4-[DB]/4-[DB]/4-[DB]/4-[DB]/4-[DB]/4-[DB]/4-[DB]/4-[DB]/4-[DB]/4-[DB]/-<[DB]/ |] %7
V:5
 x8 | x8 | x8 | x8 | x8 | x7[K:treble] x | %6
[M:37/32] z/4 z/4 z/4 z/4 z/4 z/4 z/4 z/4 z/4 z/4 z/4 z/4 z/4 z/4 z/[K:bass] [F,A,E]3/4 z/4 z/4 z/4 z/4 z/4 z/4 z/4 z/4 z/4 z/4 z/4 z/4 z/4 z/4 z/4 z/4 z/ |] %7
V:6
 x8 | x8 | x8 | x8 | x8 | x7[K:treble] x | %6
[M:37/32] [F,A,F]/4-[F,A,F]/4-[F,A,F]/4-[F,A,F]/4-[F,A,F]/-<[F,A,F]/[F,A,]/4-[F,A,]/4-[F,A,]/4-[F,A,]/4-[F,A,]/-<[F,A,]/[K:bass] z/ [B,,B,]/4-[B,,B,]/4-[B,,B,]/4-[B,,B,]/4-[B,,B,]/4-[B,,B,]/4-[B,,B,]/4-[B,,B,]/4-[B,,B,]/4-[B,,B,]/4-[B,,B,]/4-[B,,B,]/4-[B,,B,]/4-[B,,B,]/4-[B,,B,]/4-[B,,B,]/-<[B,,B,]/ |] %7

